src/assets/icons/connect-apple.svg

<?xml version="1.0" encoding="UTF-8"?>
<svg width="16px" height="16px" viewBox="0 0 16 16" version="1.1" xmlns="http://www.w3.org/2000/svg" xmlns:xlink="http://www.w3.org/1999/xlink">
    <!-- Generator: Sketch 49.3 (51167) - http://www.bohemiancoding.com/sketch -->
    <title>icons/16/connect-apple</title>
    <desc>Created with Sketch.</desc>
    <defs/>
    <g id="icons/16/connect-apple" stroke="none" stroke-width="1" fill="none" fill-rule="evenodd">
        <path d="M12.380573,8.50029712 C12.4030568,10.9216036 14.5046983,11.7273534 14.5279817,11.7376378 C14.5102113,11.7944637 14.1921744,12.8859102 13.4207371,14.0132964 C12.7538634,14.9879789 12.0617365,15.9590909 10.9714322,15.9792035 C9.90009912,15.9989438 9.55560575,15.3439002 8.33076875,15.3439002 C7.10630173,15.3439002 6.72355393,15.9590893 5.70941785,15.9989438 C4.65699755,16.0387691 3.85559054,14.9449538 3.18317492,13.9738417 C1.80917503,11.9873993 0.75915482,8.36062215 2.16906655,5.91248841 C2.86948062,4.69673524 4.12117351,3.92686958 5.47977423,3.90712781 C6.51322406,3.88741465 7.48867788,4.6023984 8.12043886,4.6023984 C8.75179928,4.6023984 9.93718327,3.74256778 11.1833337,3.86884477 C11.7050149,3.89055764 13.1693825,4.07957443 14.1096931,5.45594514 C14.0339273,5.50291427 12.3624029,6.4759962 12.380573,8.50029941 M10.3671264,2.55463979 C10.9258634,1.87831088 11.3019256,0.936798493 11.1993317,0 C10.3939543,0.0323689479 9.42007209,0.536681135 8.84239281,1.21263795 C8.32468123,1.81122919 7.87128227,2.76931264 7.99361716,3.68756987 C8.89130484,3.75702275 9.80836187,3.2313988 10.3671264,2.55464089" id="Shape" fill="#000000" fill-rule="nonzero"/>
    </g>
</svg>

<svg width="16" height="16" xmlns="http://www.w3.org/2000/svg">
  <path d="M12.38 8.5c.023 2.422 2.125 3.227 2.148 3.238-.018.056-.336 1.148-1.107 2.275-.667.975-1.36 1.946-2.45 1.966-1.07.02-1.415-.635-2.64-.635s-1.607.615-2.622.655c-1.052.04-1.853-1.054-2.526-2.025C1.81 11.987.76 8.36 2.17 5.912c.7-1.215 1.952-1.985 3.31-2.005 1.034-.02 2.01.695 2.641.695.632 0 1.817-.86 3.063-.733.522.022 1.986.21 2.927 1.587-.076.047-1.748 1.02-1.73 3.044m-2.013-5.945c.559-.677.935-1.618.832-2.555-.805.032-1.779.537-2.357 1.213-.517.598-.97 1.556-.848 2.475.897.069 1.814-.457 2.373-1.133" fill="#000" fill-rule="nonzero"/>
</svg>
